ui/StatusQ/src/assets/img/icons/homepage/settings.svg

<svg fill="none" height="24" viewBox="0 0 24 24" width="24" xmlns="http://www.w3.org/2000/svg"><path clip-rule="evenodd" d="m10.6429 1.8h-.3602l-.2094.29314-1.17635 1.64687c-.26122.36571-.29441.39373-.31418.40702-.03988.02681-.08561.04364-.13335.0491-.02367.0027-.06711.0029-.50311-.10611l-1.47649-.36912-.3845-.09612-.28025.28025-1.9 1.9-.28025.28025.09613.3845.37567 1.50269c.10642.42569.10637.46791.10388.4912-.00502.04684-.021.09184-.04664.13136-.01275.01964-.03933.05245-.39037.31572l-1.68344 1.26255-.28.21v.35 2.5334.35l.28.21 1.68829 1.2662c.34912.2618.37556.2944.38829.314.02559.0392.04161.084.04677.1306.00257.0232.00282.0651-.1008.4891l-.38253 1.5651-.09523.3896.28795.2791 1.9 1.8422.27944.2709.37759-.0944 1.5027-.3757c.42569-.1064.46791-.1063.4912-.1038.04684.005.09184.021.13135.0466.01965.0127.05245.0393.31573.3904l1.2626 1.6834.21.28h.35 2.5333.35l.21-.28 1.2626-1.6834c.2633-.3511.2961-.3777.3157-.3904.0395-.0256.0845-.0416.1314-.0466.0233-.0025.0655-.0026.4912.1038l1.5027.3757.3845.0961.2802-.2802 1.9-1.9.2803-.2803-.0961-.3845-.3757-1.5027c-.1064-.4257-.1064-.4679-.1039-.4912.005-.0468.021-.0918.0466-.1313.0128-.0197.0394-.0525.3904-.3157l1.6834-1.2626.28-.21v-.35-2.5334-.35l-.28-.21-1.6834-1.26255c-.351-.26327-.3776-.29608-.3904-.31572-.0256-.03952-.0416-.08452-.0466-.13136-.0025-.02329-.0025-.06551.1039-.4912l.3757-1.50269.0961-.3845-.2803-.28025-1.9-1.9-.2802-.28025-.3845.09612-1.4765.36913c-.436.109-.4795.1088-.5031.1061-.0478-.00546-.0935-.02229-.1334-.0491-.0197-.01329-.0529-.04131-.3142-.40702l-1.1763-1.64687-.2094-.29314h-.3602zm-.6067 2.75374.9669-1.35374h1.9939l.9669 1.35374.0448.06298c.1814.25515.3679.51757.6275.69215.226.15192.4851.24733.7557.27822.3109.03549.623-.04335.9265-.12l.0749-.01887 1.092-.27299 1.3395 1.3395-.2795 1.11819-.0184.07312c-.0749.29662-.152.60181-.1193.90673.0284.26542.1189.52042.2642.74434.167.25726.4192.44552.6644.6285l.0604.04519 1.4034 1.0525v1.8334l-1.4034 1.0526-.0604.0451c-.2452.183-.4974.3712-.6644.6285-.1453.2239-.2358.4789-.2642.7443-.0327.305.0444.6101.1193.9068l.0184.0731.2795 1.1182-1.3395 1.3395-1.1182-.2796-.0731-.0184c-.2966-.0749-.6018-.1519-.9067-.1193-.2654.0284-.5204.119-.7444.2643-.2572.1669-.4455.4192-.6285.6644l-.0451.0604-1.0526 1.4034h-1.8333l-1.0526-1.4034-.04515-.0604c-.18297-.2452-.37124-.4975-.62849-.6644-.22392-.1453-.47892-.2359-.74434-.2643-.30493-.0326-.61011.0444-.90673.1193l-.07312.0184-1.1251.2813-1.33261-1.292.28731-1.1755.01792-.0728c.07295-.2955.14802-.5995.11439-.9029-.02927-.2641-.12005-.5177-.26505-.7404-.16657-.2558-.41754-.4431-.66143-.6251h-.00001l-.06005-.0449-1.40829-1.0562v-1.8334l1.40344-1.0525.0604-.04519c.24517-.18298.49744-.37124.66437-.6285.14531-.22392.23584-.47892.26427-.74434.03266-.30492-.0444-.61011-.11931-.90673l-.0184-.07312-.27955-1.11819 1.3395-1.3395 1.09199.27299.07497.01887v.00001c.30348.07665.61562.15548.9265.11999.27052-.03089.52967-.1263.75564-.27822.25967-.17458.44616-.437.62748-.69215zm-.83615 7.44626c0-1.5464 1.25355-2.80005 2.79995-2.80005s2.8 1.25365 2.8 2.80005-1.2536 2.8-2.8 2.8-2.79995-1.2536-2.79995-2.8zm2.79995-4.20005c-2.31955 0-4.19995 1.88041-4.19995 4.20005 0 2.3195 1.8804 4.2 4.19995 4.2 2.3196 0 4.2-1.8805 4.2-4.2 0-2.31964-1.8804-4.20005-4.2-4.20005z" fill="#09101c" fill-rule="evenodd"/></svg>

<svg width="24" height="24" viewBox="0 0 24 24" fill="none" xmlns="http://www.w3.org/2000/svg">
<g id="24/settings">
<path id="body" fill-rule="evenodd" clip-rule="evenodd" d="M10.6429 1.8H10.2827L10.0733 2.09314L8.89695 3.74001C8.63573 4.10572 8.60254 4.13374 8.58277 4.14703C8.54289 4.17384 8.49716 4.19067 8.44942 4.19613C8.42575 4.19883 8.38231 4.19903 7.94631 4.09002L6.46982 3.7209L6.08532 3.62478L5.80507 3.90503L3.90507 5.80503L3.62482 6.08528L3.72095 6.46978L4.09662 7.97247C4.20304 8.39816 4.20299 8.44038 4.2005 8.46367C4.19548 8.51051 4.1795 8.55551 4.15386 8.59503C4.14111 8.61467 4.11453 8.64748 3.76349 8.91075L2.08005 10.1733L1.80005 10.3833V10.7333V13.2667V13.6167L2.08005 13.8267L3.76834 15.0929C4.11746 15.3547 4.1439 15.3873 4.15663 15.4069C4.18222 15.4461 4.19824 15.4909 4.2034 15.5375C4.20597 15.5607 4.20622 15.6026 4.1026 16.0266L3.72007 17.5917L3.62484 17.9813L3.91279 18.2604L5.81279 20.1026L6.09223 20.3735L6.46982 20.2791L7.97252 19.9034C8.39821 19.797 8.44043 19.7971 8.46372 19.7996C8.51056 19.8046 8.55556 19.8206 8.59507 19.8462C8.61472 19.8589 8.64752 19.8855 8.9108 20.2366L10.1734 21.92L10.3834 22.2H10.7334H13.2667H13.6167L13.8267 21.92L15.0893 20.2366C15.3526 19.8855 15.3854 19.8589 15.405 19.8462C15.4445 19.8206 15.4895 19.8046 15.5364 19.7996C15.5597 19.7971 15.6019 19.797 16.0276 19.9034L17.5303 20.2791L17.9148 20.3752L18.195 20.095L20.095 18.195L20.3753 17.9147L20.2792 17.5302L19.9035 16.0275C19.7971 15.6018 19.7971 15.5596 19.7996 15.5363C19.8046 15.4895 19.8206 15.4445 19.8462 15.405C19.859 15.3853 19.8856 15.3525 20.2366 15.0893L21.92 13.8267L22.2 13.6167V13.2667V10.7333V10.3833L21.92 10.1733L20.2366 8.91075C19.8856 8.64748 19.859 8.61467 19.8462 8.59503C19.8206 8.55551 19.8046 8.51051 19.7996 8.46367C19.7971 8.44038 19.7971 8.39816 19.9035 7.97247L20.2792 6.46978L20.3753 6.08528L20.095 5.80503L18.195 3.90503L17.9148 3.62478L17.5303 3.7209L16.0538 4.09003C15.6178 4.19903 15.5743 4.19883 15.5507 4.19613C15.5029 4.19067 15.4572 4.17384 15.4173 4.14703C15.3976 4.13374 15.3644 4.10572 15.1031 3.74001L13.9268 2.09314L13.7174 1.8H13.3572H10.6429ZM10.0362 4.55374L11.0031 3.2H12.997L13.9639 4.55374L14.0087 4.61672C14.1901 4.87187 14.3766 5.13429 14.6362 5.30887C14.8622 5.46079 15.1213 5.5562 15.3919 5.58709C15.7028 5.62258 16.0149 5.54374 16.3184 5.46709L16.3933 5.44822L17.4853 5.17523L18.8248 6.51473L18.5453 7.63292L18.5269 7.70604C18.452 8.00266 18.3749 8.30785 18.4076 8.61277C18.436 8.87819 18.5265 9.13319 18.6718 9.35711C18.8388 9.61437 19.091 9.80263 19.3362 9.98561L19.3966 10.0308L20.8 11.0833V12.9167L19.3966 13.9693L19.3362 14.0144C19.091 14.1974 18.8388 14.3856 18.6718 14.6429C18.5265 14.8668 18.436 15.1218 18.4076 15.3872C18.3749 15.6922 18.452 15.9973 18.5269 16.294L18.5453 16.3671L18.8248 17.4853L17.4853 18.8248L16.3671 18.5452L16.294 18.5268C15.9974 18.4519 15.6922 18.3749 15.3873 18.4075C15.1219 18.4359 14.8669 18.5265 14.6429 18.6718C14.3857 18.8387 14.1974 19.091 14.0144 19.3362L13.9693 19.3966L12.9167 20.8H11.0834L10.0308 19.3966L9.98565 19.3362C9.80268 19.091 9.61441 18.8387 9.35716 18.6718C9.13324 18.5265 8.87824 18.4359 8.61282 18.4075C8.30789 18.3749 8.00271 18.4519 7.70609 18.5268L7.63297 18.5452L6.50787 18.8265L5.17526 17.5345L5.46257 16.359L5.48049 16.2862C5.55344 15.9907 5.62851 15.6867 5.59488 15.3833C5.56561 15.1192 5.47483 14.8656 5.32983 14.6429C5.16326 14.3871 4.91229 14.1998 4.6684 14.0178L4.66839 14.0178L4.60834 13.9729L3.20005 12.9167V11.0833L4.60349 10.0308L4.66389 9.98561C4.90906 9.80263 5.16133 9.61437 5.32826 9.35711C5.47357 9.13319 5.5641 8.87819 5.59253 8.61277C5.62519 8.30785 5.54813 8.00266 5.47322 7.70604L5.45482 7.63292L5.17527 6.51473L6.51477 5.17523L7.60676 5.44822L7.68173 5.46709L7.68173 5.4671C7.98521 5.54375 8.29735 5.62258 8.60823 5.58709C8.87875 5.5562 9.1379 5.46079 9.36387 5.30887C9.62354 5.13429 9.81003 4.87187 9.99135 4.61672L10.0362 4.55374ZM9.20005 12C9.20005 10.4536 10.4536 9.19995 12 9.19995C13.5464 9.19995 14.8 10.4536 14.8 12C14.8 13.5464 13.5464 14.8 12 14.8C10.4536 14.8 9.20005 13.5464 9.20005 12ZM12 7.79995C9.68045 7.79995 7.80005 9.68036 7.80005 12C7.80005 14.3195 9.68045 16.2 12 16.2C14.3196 16.2 16.2 14.3195 16.2 12C16.2 9.68036 14.3196 7.79995 12 7.79995Z" fill="#09101C"/>
</g>
</svg>
